common/icons/svgs/calendar_added.svg

<svg xmlns="http://www.w3.org/2000/svg" width="24" height="24" viewBox="0 0 24 24">
  <g fill="none" fill-rule="evenodd" transform="translate(-120 -66)">
    <rect width="504" height="450" fill="#FFF"/>
    <g transform="translate(120 66)">
      <rect width="24" height="24"/>
      <path fill="#000" fill-rule="nonzero" d="M10.59,19.88 C10.9800375,20.2677236 11.6099625,20.2677236 12,19.88 L17,14.88 C17.3397768,14.4832397 17.3169323,13.8918058 16.9475632,13.5224368 C16.5781942,13.1530677 15.9867603,13.1302232 15.59,13.47 L11.26,17.8 L9.77,16.31 C9.37323972,15.9702232 8.78180583,15.9930677 8.41243678,16.3624368 C8.04306773,16.7318058 8.0202232,17.3232397 8.36,17.72 L10.59,19.88 Z"/>
      <path fill="#000" fill-rule="nonzero" d="M18,4.42 L18,2.92 C18,2.36771525 17.5522847,1.92 17,1.92 C16.4477153,1.92 16,2.36771525 16,2.92 L16,4.42 L8,4.42 L8,2.92 C8,2.36771525 7.55228475,1.92 7,1.92 C6.44771525,1.92 6,2.36771525 6,2.92 L6,4.42 C3.790861,4.42 2,6.210861 2,8.42 L2,19.42 C2,21.629139 3.790861,23.42 6,23.42 L18,23.42 C20.209139,23.42 22,21.629139 22,19.42 L22,8.42 C22,6.210861 20.209139,4.42 18,4.42 Z M4,8.42 C4,7.3154305 4.8954305,6.42 6,6.42 L6,7.92 C6,8.47228475 6.44771525,8.92 7,8.92 C7.55228475,8.92 8,8.47228475 8,7.92 L8,6.42 L16,6.42 L16,7.92 C16,8.47228475 16.4477153,8.92 17,8.92 C17.5522847,8.92 18,8.47228475 18,7.92 L18,6.42 C19.1045695,6.42 20,7.3154305 20,8.42 L20,9.92 L4,9.92 L4,8.42 Z M20,19.42 C20,20.5245695 19.1045695,21.42 18,21.42 L6,21.42 C4.8954305,21.42 4,20.5245695 4,19.42 L4,11.92 L20,11.92 L20,19.42 Z"/>
    </g>
  </g>
</svg>

<svg xmlns="http://www.w3.org/2000/svg" viewbox="0 0 24 24"><path class="icon__shape" fill-rule="nonzero" d="M10.59 19.88a1 1 0 0 0 1.41 0l5-5a1 1 0 0 0-1.41-1.41l-4.33 4.33-1.49-1.49a1 1 0 0 0-1.41 1.41l2.23 2.16z"/><path class="icon__shape" fill-rule="nonzero" d="M18 4.42v-1.5a1 1 0 0 0-2 0v1.5H8v-1.5a1 1 0 1 0-2 0v1.5a4 4 0 0 0-4 4v11a4 4 0 0 0 4 4h12a4 4 0 0 0 4-4v-11a4 4 0 0 0-4-4zm-14 4a2 2 0 0 1 2-2v1.5a1 1 0 1 0 2 0v-1.5h8v1.5a1 1 0 0 0 2 0v-1.5a2 2 0 0 1 2 2v1.5H4v-1.5zm16 11a2 2 0 0 1-2 2H6a2 2 0 0 1-2-2v-7.5h16v7.5z"/></svg>
